packages/foundations/assets/icons/functional/images/transportation/train_32.svg

<svg width="32" height="32" viewBox="0 0 32 32" fill="none" xmlns="http://www.w3.org/2000/svg">
<g clip-path="url(#clip0_187_956)">
<path fill-rule="evenodd" clip-rule="evenodd" d="M17.4863 2C20.5716 2 22.358 3.07441 23.7385 4.9C25.0186 6.59286 25.7664 8.61959 25.8931 10.7264L25.9913 14.3654C26.0487 16.6425 25.8215 18.9172 25.3153 21.1373L24.5624 24.1412C24.332 24.8943 24.1445 25.4232 24 25.728C23.7832 26.1851 23.1218 27.1501 22.8799 27.4375C22.6381 27.7249 21.95 28.4289 20.9688 28.7555C20.9895 28.833 21 28.9153 21 29C21 29.5128 20.5924 30 20 30H12C11.4477 30 11 29.5523 11 29C11 28.9094 11.0121 28.8216 11.0346 28.7382C10.235 28.4542 9.52659 27.9417 9.00516 27.2537C8.48372 26.5657 8.28133 26.2504 8.00791 25.728C7.82563 25.3797 7.61956 24.7912 7.38969 23.9626L6.83081 21.7638C6.27374 19.5664 5.99488 17.3095 6.00001 15.0453L6.09214 11.0991C6.1484 8.85926 6.90696 6.69245 8.26234 4.9C9.59349 3.13961 11.4592 2 14.5792 2C15.374 2 16.343 2 17.4863 2ZM9.34696 23.5416C9.43386 23.9652 9.56867 24.3528 9.75136 24.7043C9.93406 25.0558 10.191 25.467 10.5221 25.938C10.9342 26.5494 11.755 27 12.3753 26.993L19.5254 27C20.2606 27 21.022 26.677 21.4901 25.9543C21.9581 25.2315 22.2014 24.8618 22.3852 24.412C22.5077 24.1121 22.5958 23.822 22.6495 23.5416C21.2913 24.3981 20.4886 24.8903 20.2415 25.0181C19.8707 25.2099 19.4696 25.3277 18.9051 25.3991C17.8826 25.4654 16.9141 25.5001 15.9996 25.503C15.0851 25.506 14.1695 25.4775 13.2528 25.4174C12.5493 25.3427 12.0908 25.2066 11.6579 24.9639C11.2251 24.7212 10.045 23.9534 9.34696 23.5416ZM14.5792 4C12.2908 4 10.9607 4.64742 9.85761 6.10628C8.82325 7.47418 8.21629 9.10881 8.10676 10.8086L8.00791 14.4779C7.95566 16.5584 8.14454 18.7099 8.66994 20.858C9.44528 21.2877 10.1167 21.6716 10.6843 22.0097C11.5357 22.517 11.8508 22.7351 12.443 23.0871C13.0353 23.4392 14.166 23.5016 16.0176 23.5016C17.8693 23.5016 18.8361 23.5467 19.5933 23.0871C20.3505 22.6276 20.7039 22.3835 21.3325 22.0097C21.9917 21.6178 22.67 21.2235 23.3215 20.8698C23.7748 19.1322 24.001 17.1902 24 15.0437L23.9096 11.1494C23.8637 9.32798 23.2466 7.56541 22.1432 6.10628C21.075 4.69365 19.9128 4.00359 17.4863 4.00359L14.5792 4ZM12.5942 17.5408L13.5348 20.4363C13.7043 20.962 13.4155 21.5255 12.8899 21.6949C12.4018 21.8523 11.8811 21.6146 11.6735 21.159L10.7328 18.2635C10.5634 17.7378 10.8521 17.1743 11.3777 17.0048C11.8658 16.8475 12.3866 17.0852 12.5942 17.5408ZM19.2938 17.5671C19.5014 17.1115 20.0221 16.8738 20.5102 17.0311C20.9983 17.1885 21.2821 17.6856 21.1845 18.1767L20.2229 21.159C20.0154 21.6146 19.4946 21.8523 19.0065 21.6949C18.5184 21.5376 18.2346 21.0405 18.3322 20.5494L19.2938 17.5671ZM16.0001 6C18.1051 6 19.6908 6.43271 20.7572 7.29813C21.8237 8.16354 22.0087 9.05467 21.9 10.0113C21.8162 10.7486 21.7502 11.324 21.4861 12.4411C21.222 13.5583 20.2555 14.4392 19.0968 14.6406C18.0647 14.8802 17.0324 15 16 15C14.4514 15 14.1319 14.8831 12.9027 14.6405C11.6735 14.3979 10.7708 13.5411 10.4959 12.3704C10.2946 11.4403 10.1574 10.6624 10.0842 10.0369C9.97449 9.09862 10.3131 8.16344 10.9981 7.51293C12.0603 6.50431 13.7276 6 16.0001 6ZM16.0001 8C14.1955 8 13.0131 8.35763 12.3753 8.96322C12.1796 9.14908 12.0687 9.40466 12.0625 9.65785C12.0583 9.82664 12.1852 10.5785 12.443 11.9133C12.5255 12.2645 12.7895 12.5409 13.1241 12.6418C14.3648 12.8772 15.3204 12.9966 15.9909 13C16.6613 13.0034 17.5825 12.8934 18.7542 12.6701C19.0976 12.6104 19.3817 12.3773 19.5058 12.0767C19.6298 11.776 19.8355 10.4652 19.9128 9.7855C19.9445 9.50647 19.9327 9.22828 19.497 8.85112C18.9051 8.33873 17.6848 8 16.0001 8Z" fill="#1A1C1F"/>
</g>
<defs>
<clipPath id="clip0_187_956">
<rect width="32" height="32" fill="white"/>
</clipPath>
</defs>
</svg>

<svg xmlns="http://www.w3.org/2000/svg" width="32" height="32" fill="none"><g clip-path="url(#a)"><path fill="#1A1C1F" fill-rule="evenodd" d="M17.486 2c3.086 0 4.872 1.074 6.252 2.9a10.73 10.73 0 0 1 2.155 5.826l.098 3.64a27.4 27.4 0 0 1-.676 6.771l-.753 3.004q-.346 1.13-.562 1.587c-.217.457-.878 1.422-1.12 1.71-.242.287-.93.99-1.911 1.318q.03.117.031.244a1 1 0 0 1-1 1h-8a1 1 0 0 1-.965-1.262 4.4 4.4 0 0 1-2.03-1.484c-.521-.688-.724-1.004-.997-1.526q-.273-.522-.618-1.765l-.56-2.2A27 27 0 0 1 6 15.046l.092-3.946c.056-2.24.815-4.407 2.17-6.199C9.593 3.14 11.46 2 14.58 2zM9.347 23.542q.13.634.404 1.162t.771 1.234c.412.611 1.233 1.062 1.853 1.055l7.15.007c.736 0 1.497-.323 1.965-1.046s.711-1.092.895-1.542q.184-.45.264-.87-2.037 1.284-2.408 1.476c-.37.192-.771.31-1.336.381a47 47 0 0 1-2.905.104 40 40 0 0 1-2.747-.086c-.704-.074-1.162-.21-1.595-.453s-1.613-1.01-2.311-1.422M14.579 4c-2.288 0-3.618.647-4.721 2.106a8.73 8.73 0 0 0-1.751 4.703l-.1 3.669c-.051 2.08.138 4.232.663 6.38q1.163.645 2.014 1.152c.852.507 1.167.725 1.759 1.077s1.723.415 3.575.415c1.851 0 2.818.045 3.575-.415s1.11-.703 1.74-1.077c.659-.392 1.337-.787 1.989-1.14q.68-2.607.678-5.826l-.09-3.895a8.72 8.72 0 0 0-1.767-5.043c-1.068-1.412-2.23-2.102-4.657-2.102zm-1.985 13.54.94 2.896a1 1 0 0 1-1.86.723l-.941-2.895a1 1 0 0 1 1.861-.723m6.7.027a1 1 0 0 1 1.89.61l-.961 2.982a1 1 0 0 1-1.89-.61zM16 6q3.157 0 4.757 1.298c1.067.866 1.252 1.757 1.143 2.713-.084.738-.15 1.313-.414 2.43s-1.23 1.998-2.39 2.2Q17.55 15 16 15c-1.549 0-1.868-.117-3.097-.36-1.23-.242-2.132-1.099-2.407-2.27a25 25 0 0 1-.412-2.333 3 3 0 0 1 .914-2.524Q12.592 6 16 6m0 2c-1.805 0-2.987.358-3.625.963a1 1 0 0 0-.312.695q-.007.253.38 2.255a1 1 0 0 0 .681.729q1.86.353 2.867.358t2.763-.33c.344-.06.628-.293.752-.593.124-.301.33-1.612.407-2.291.032-.28.02-.558-.416-.935C18.905 8.34 17.685 8 16 8" clip-rule="evenodd"/></g><defs><clipPath id="a"><path fill="#fff" d="M0 0h32v32H0z"/></clipPath></defs></svg>
